X:1
T:Toy 2
C:anon.
N:variant of "Dainty Davy
B:Pickeringe no. 17
V:1 program 1 24
V:2 program 1 24 bass
M:C
L:1/4
Q:1/2=56
K:C
V:1
EG GF/E/|DC A,2|Ac EG|Ac EG|EG [GE]G/F/|\
DC A,2|C3/C/ CE|C3/C/ CE|
V:2
C,4|G,,2 [F,2A,,2]|C,4|C,4|\
C,4|G,,2 [F,2A,,2]|[G,4C,4]|[G,4C,4]|
%
V:1
GF/G/ A/G/F/E/|DC A,2|Ac E/F/G|Ac E/F/G|\
EF/G/ A/G/F/E/|DC A,2|CA,/B,/ C/D/E/F/|GC CE|]
V:2
C,4|G,,2 [F,2A,,2]|C,4|C,4|C,4|\
G,,2 [F,2A,,2]|C,4|C,4|]
